X:127
T:South Wind, The
R:Other
O:Ireland
S:Jim Coon to CoMandoList TOW
M:3/4
L:1/8
K:G
dc|\
"G"B3A G2|B3c d2|"D"A3B  AG|A4 dc|!
"G"B3A G2|"C"E3D "D7"EF|"G" G6|G4:|!
d2|\
"G"g3a g2|"D"g3f e2|"G"d4 BA|B4dc|B3AG2|!
B3cd2|"D7"A3B AG|A4d2|"G"g3bg2|"C"g3fe2|!
"G"d4 BA|B4dc|B3AG2|"C"E3D "D7"EF|"G"G6| G4|
